src/Assets/icons/twitter-light.svg

<svg width="17" height="14" viewBox="0 0 17 14" fill="none" xmlns="http://www.w3.org/2000/svg">
<path d="M5.69994 13.5C11.7362 13.5 15.0387 8.4978 15.0387 4.16124C15.0387 4.02062 15.0356 3.87687 15.0293 3.73624C15.6718 3.27164 16.2262 2.69617 16.6665 2.03687C16.0682 2.30307 15.4329 2.47692 14.7824 2.55249C15.4674 2.14194 15.9802 1.49698 16.2259 0.737178C15.5815 1.11904 14.8769 1.38841 14.1421 1.53374C13.6471 1.00771 12.9925 0.659411 12.2796 0.542701C11.5668 0.42599 10.8353 0.547367 10.1983 0.888064C9.56137 1.22876 9.05437 1.7698 8.75574 2.42754C8.4571 3.08528 8.38346 3.82308 8.54619 4.52687C7.2415 4.46139 5.96513 4.12247 4.79983 3.53207C3.63452 2.94166 2.6063 2.11296 1.78182 1.09968C1.36277 1.82216 1.23454 2.6771 1.42319 3.49073C1.61184 4.30436 2.10321 5.01563 2.79744 5.47999C2.27626 5.46344 1.76649 5.32312 1.31025 5.07062V5.11124C1.30979 5.86943 1.5719 6.60439 2.05204 7.19118C2.53219 7.77797 3.20072 8.18037 3.944 8.32999C3.46121 8.46209 2.95449 8.48133 2.46307 8.38624C2.67281 9.03829 3.08089 9.60859 3.63035 10.0176C4.17982 10.4265 4.84325 10.6537 5.52807 10.6675C4.36545 11.5807 2.92929 12.0761 1.45088 12.0737C1.1887 12.0733 0.92677 12.0573 0.666504 12.0256C2.16841 12.9892 3.91552 13.5009 5.69994 13.5Z" fill="white"/>
</svg>

<svg xmlns="http://www.w3.org/2000/svg" width="17" height="14" fill="none" xmlns:v="https://vecta.io/nano"><path d="M5.7 13.5c6.036 0 9.339-5.002 9.339-9.339 0-.141-.003-.284-.009-.425.643-.465 1.197-1.04 1.637-1.699a6.47 6.47 0 0 1-1.884.516A3.3 3.3 0 0 0 16.226.737a6.6 6.6 0 0 1-2.084.797c-.495-.526-1.15-.874-1.862-.991s-1.444.005-2.081.345-1.144.882-1.443 1.539-.372 1.396-.21 2.099c-1.305-.065-2.581-.404-3.746-.995S2.606 2.113 1.782 1.1c-.419.722-.547 1.577-.359 2.391s.68 1.525 1.374 1.989c-.521-.017-1.031-.157-1.487-.409v.041A3.28 3.28 0 0 0 3.944 8.33c-.483.132-.99.151-1.481.056a3.29 3.29 0 0 0 3.065 2.281c-1.163.913-2.599 1.409-4.077 1.406a6.57 6.57 0 0 1-.784-.048A9.31 9.31 0 0 0 5.7 13.5z" fill="#fff"/></svg>
